assets/icons/qvision/brunch_dining.svg

<svg xmlns="http://www.w3.org/2000/svg" enable-background="new 0 0 24 24" height="24" viewBox="0 0 24 24" width="24"><g><rect fill="none" height="24" width="24"/></g><g><path d="M18,8h2V4h-2V8z M15.51,22H2.49C2.22,22,2,21.78,2,21.5V20h14v1.5 C16,21.78,15.78,22,15.51,22z M18,15.89l-0.4-0.42c-1.02-1.08-1.6-2.52-1.6-4V2h6v9.51c0,1.46-0.54,2.87-1.53,3.94L20,15.97V20h2v2 h-4V15.89z M7,16v-2h4v2h4.5c0.28,0,0.5,0.22,0.5,0.5v1c0,0.28-0.22,0.5-0.5,0.5h-13C2.22,18,2,17.78,2,17.5v-1 C2,16.22,2.22,16,2.5,16H7z" fill-rule="evenodd"/></g></svg>

<svg width="24" height="24" viewBox="0 0 24 24" fill="none" xmlns="http://www.w3.org/2000/svg">
<g clip-path="url(#clip0_147_5123)">
<path fill-rule="evenodd" clip-rule="evenodd" d="M18 8H20V4H18V8ZM15.51 22H2.49C2.22 22 2 21.78 2 21.5V20H16V21.5C16 21.78 15.78 22 15.51 22ZM18 15.89L17.6 15.47C16.58 14.39 16 12.95 16 11.47V2H22V11.51C22 12.97 21.46 14.38 20.47 15.45L20 15.97V20H22V22H18V15.89ZM7 16V14H11V16H15.5C15.78 16 16 16.22 16 16.5V17.5C16 17.78 15.78 18 15.5 18H2.5C2.22 18 2 17.78 2 17.5V16.5C2 16.22 2.22 16 2.5 16H7Z" fill="#323232"/>
</g>
<defs>
<clipPath id="clip0_147_5123">
<rect width="24" height="24" fill="white"/>
</clipPath>
</defs>
</svg>
